dist/svg/ac-fill.svg

<svg xmlns="http://www.w3.org/2000/svg" viewBox="0 0 24 24"><path d="M4.617 2.283q-.873.101-1.552.781a2.74 2.74 0 0 0-.696 1.116l-.109.32v6l.109.32c.151.445.362.783.695 1.116s.671.544 1.116.695l.32.109h15l.32-.109a2.74 2.74 0 0 0 1.116-.695c.333-.333.544-.671.695-1.116l.109-.32v-6l-.109-.32a2.74 2.74 0 0 0-.696-1.116c-.472-.471-.961-.709-1.606-.783-.426-.049-14.293-.047-14.712.002m13.56 4.995a.739.739 0 0 1 .348 1.246.84.84 0 0 1-.306.191c-.225.063-12.213.063-12.438 0-.212-.058-.441-.293-.5-.511-.109-.405.133-.832.524-.924.191-.045 12.178-.047 12.372-.002M10.42 13.26a2 2 0 0 1-.149.037c-.147.032-.39.251-.457.411-.042.101-.054.472-.054 1.703 0 1.944-.018 2.067-.35 2.434-.248.275-.482.368-.97.386-.4.015-.43.011-.638-.099a.99.99 0 0 1-.528-.73c-.113-.641.137-1.076.656-1.141a3 3 0 0 0 .333-.065c.24-.074.498-.441.496-.705-.002-.252-.247-.596-.492-.688-.286-.109-.911-.01-1.323.208-.313.165-.767.619-.931.929-.211.401-.264.682-.243 1.3.022.658.104.945.393 1.377.243.362.558.652.913.837.382.2.647.268 1.145.294.963.05 1.704-.244 2.33-.927.291-.318.504-.712.61-1.125.073-.285.079-.448.079-2.08 0-1.154-.015-1.81-.043-1.883a.9.9 0 0 0-.357-.391c-.108-.055-.355-.104-.42-.082m3.4.016a.73.73 0 0 0-.541.527c-.029.108-.039 1.048-.031 2.928l.013 2.769.108.32c.151.444.362.783.695 1.116.335.335.675.546 1.116.692.289.096.38.107.94.109.493.002.669-.012.86-.071.41-.125.7-.305 1.041-.645.506-.507.687-.926.727-1.683.029-.555-.029-.907-.214-1.292a2.11 2.11 0 0 0-1.847-1.166.746.746 0 0 0-.696 1.048c.106.241.3.382.593.434.343.06.449.112.559.273.086.127.097.187.097.516 0 .419-.044.559-.245.788-.206.235-.387.299-.843.3-.294.001-.442-.019-.605-.08-.258-.096-.542-.362-.674-.63l-.093-.189-.02-2.78c-.021-2.959-.014-2.852-.215-3.074a.79.79 0 0 0-.725-.21"/></svg>

<svg fill="none" xmlns="http://www.w3.org/2000/svg" viewBox="0 0 24 24"><path d="M4.617 2.283 C 4.034 2.351,3.519 2.610,3.065 3.064 C 2.732 3.396,2.521 3.735,2.369 4.180 L 2.260 4.500 2.260 7.500 L 2.260 10.500 2.369 10.820 C 2.520 11.265,2.731 11.603,3.064 11.936 C 3.397 12.269,3.735 12.480,4.180 12.631 L 4.500 12.740 12.000 12.740 L 19.500 12.740 19.820 12.631 C 20.265 12.480,20.603 12.269,20.936 11.936 C 21.269 11.603,21.480 11.265,21.631 10.820 L 21.740 10.500 21.740 7.500 L 21.740 4.500 21.631 4.180 C 21.479 3.735,21.268 3.396,20.935 3.064 C 20.463 2.593,19.974 2.355,19.329 2.281 C 18.903 2.232,5.036 2.234,4.617 2.283 M18.177 7.278 C 18.742 7.409,18.938 8.111,18.525 8.524 C 18.444 8.605,18.307 8.691,18.219 8.715 C 17.994 8.778,6.006 8.778,5.781 8.715 C 5.569 8.657,5.340 8.422,5.281 8.204 C 5.172 7.799,5.414 7.372,5.805 7.280 C 5.996 7.235,17.983 7.233,18.177 7.278 M10.420 13.260 C 10.398 13.267,10.331 13.284,10.271 13.297 C 10.124 13.329,9.881 13.548,9.814 13.708 C 9.772 13.809,9.760 14.180,9.760 15.411 C 9.760 17.355,9.742 17.478,9.410 17.845 C 9.162 18.120,8.928 18.213,8.440 18.231 C 8.040 18.246,8.010 18.242,7.802 18.132 C 7.514 17.981,7.332 17.729,7.274 17.402 C 7.161 16.761,7.411 16.326,7.930 16.261 C 8.046 16.246,8.195 16.217,8.263 16.196 C 8.503 16.122,8.761 15.755,8.759 15.491 C 8.757 15.239,8.512 14.895,8.267 14.803 C 7.981 14.694,7.356 14.793,6.944 15.011 C 6.631 15.176,6.177 15.630,6.013 15.940 C 5.802 16.341,5.749 16.622,5.770 17.240 C 5.792 17.898,5.874 18.185,6.163 18.617 C 6.406 18.979,6.721 19.269,7.076 19.454 C 7.458 19.654,7.723 19.722,8.221 19.748 C 9.184 19.798,9.925 19.504,10.551 18.821 C 10.842 18.503,11.055 18.109,11.161 17.696 C 11.234 17.411,11.240 17.248,11.240 15.616 C 11.240 14.462,11.225 13.806,11.197 13.733 C 11.146 13.597,10.977 13.412,10.840 13.342 C 10.732 13.287,10.485 13.238,10.420 13.260 M13.820 13.276 C 13.549 13.344,13.351 13.537,13.279 13.803 C 13.250 13.911,13.240 14.851,13.248 16.731 L 13.261 19.500 13.369 19.820 C 13.520 20.264,13.731 20.603,14.064 20.936 C 14.399 21.271,14.739 21.482,15.180 21.628 C 15.469 21.724,15.560 21.735,16.120 21.737 C 16.613 21.739,16.789 21.725,16.980 21.666 C 17.390 21.541,17.680 21.361,18.021 21.021 C 18.527 20.514,18.708 20.095,18.748 19.338 C 18.777 18.783,18.719 18.431,18.534 18.046 C 18.204 17.358,17.447 16.880,16.687 16.880 C 16.134 16.880,15.770 17.429,15.991 17.928 C 16.097 18.169,16.291 18.310,16.584 18.362 C 16.927 18.422,17.033 18.474,17.143 18.635 C 17.229 18.762,17.240 18.822,17.240 19.151 C 17.240 19.570,17.196 19.710,16.995 19.939 C 16.789 20.174,16.608 20.238,16.152 20.239 C 15.858 20.240,15.710 20.220,15.547 20.159 C 15.289 20.063,15.005 19.797,14.873 19.529 L 14.780 19.340 14.760 16.560 C 14.739 13.601,14.746 13.708,14.545 13.486 C 14.381 13.305,14.068 13.215,13.820 13.276 " stroke="none" fill-rule="evenodd"/></svg>
